X:1
T:The Everlasting Song
T:The Everlasting Song
T:John Robson Sweney
T:Frances Jane (Fanny) Crosby, 1890
T:Public Domain Courtesy of the Cyber Hymnal™
T:Public Domain Courtesy of the Cyber Hymnal™
C:John Robson Sweney
Z:Public Domain
Z:Courtesy of the Cyber Hymnal™
%%score ( 1 2 ) ( 3 4 )
L:1/8
M:4/4
K:Eb
V:1 treble 
V:2 treble 
V:3 bass 
V:4 bass 
V:1
 [GB]4 [^F=A]2 [GB]2 | [EG]6 [GB]2 | [Ge]2 [EG]2 [^Fd]2 [Fc]2 | [GB]4 [FA]4 | [FA]4 [=EG]2 [FA]2 | %5
w: 1.~Come, O my|soul, my|ev- ery power a-|wak- ing,|Look un- to|
w: 2.~Think, O my|soul, now|pa- tient- ly He|sought thee,|Far, far a-|
w: 3.~Sing, O my|soul, and|let thy pure de-|vo- tion|Rise to His|
w: 4.~Soon, O my|soul, thine|earth- ly house for-|sak- ing,|Soon shalt thou|
 [DF]6 [FA]2 | [Fd]2 [DF]2 [GB]2 [FA]2 | [EG]6 z2 | [GB]4 [^F=A]2 [GB]2 | [Ge]6 [Ge]2 | %10
w: Him whose|good- ness crowns thy|days;|While in- to|song an-|
w: way up-|on the mount- ain|steep;|Then in His|arms how|
w: throne, thy|Sav- ior, friend, and|guide;|Sing of His|love that,|
w: rise the|bet- ter world to|see;|Then will thy|harp, a|
 [Ge]2 [Fd]2 [FG]2 [Fd]2 | [Fd]4 [Ec]4 | [Dc]4 [DB]2 [DA]2 | [EG]2 G2 ([Ge]B) (GE) | %14
w: gel- ic choirs are|break- ing,|O let thy|voice its thank- * ful *|
w: ten- der- ly He|brought thee,|Home to His|fold, a wea- * ry, *|
w: like a might- y|o- cean,|Flows un- to|thee, and all * the *|
w: no- bler strain a-|wak- ing,|Praise Him Who|died to pur- * chase *|
 (F2 B4) [B,D]2 | [B,E]6 z2 ||"^Refrain" [CE]4 [EG]3 [EG] | [Ec]6 [CG]2 | %18
w: tri- * bute|bring.|||
w: wan- * d’ring|sheep.|||
w: world * be-|side.|||
w: life * for|thee.|||
 [CA]2 [CG]2 [=B,F]2 [CE]2 | ([CE]4 [=B,D]4) | [CE]4 [DF]3 [DF] | [EG]6 [EB]2 | %22
w: ||||
w: ||||
w: ||||
w: ||||
 [DB]2 [C=A]2 [Fd]2 [Fc]2 | B8 | [GB]4 [^F=A]3 [GB] | [Ge]6 [EG]2 | [Ec]2 [EB]2 [CE]2 [CF]2 | %27
w: |||||
w: |||||
w: |||||
w: |||||
 [DG]8 | [DA]4 [DB]2 [Dc]2 | [EB]6 [Ge]2 | [Ae]2 [Ad]2 [Ac]2 [Ad]2 | [Ge]6 |] %32
w: |||||
w: |||||
w: |||||
w: |||||
V:2
 x8 | x8 | x8 | x8 | x8 | x8 | x8 | x8 | x8 | x8 | x8 | x8 | x8 | x5 BGE | D6 x2 | x8 || x8 | x8 | %18
 x8 | x8 | x8 | x8 | x8 | (F2 G2 A4) | x8 | x8 | x8 | x8 | x8 | x8 | x8 | x6 |] %32
V:3
 [E,E]4 [E,E]2 [E,E]2 | [E,B,]6 [E,B,]2 | [E,B,]2 [E,B,]2 [E,=A,]2 [E,C]2 | [B,D]4 [B,D]4 | %4
w: ~ ~ ~|~ ~|~ ~ ~ ~|~ ~|
 [B,,D]4 [B,,B,]2 [B,,B,]2 | [B,,B,]6 [B,,B,]2 | [B,,B,]2 [B,,B,]2 [C,B,]2 [D,B,]2 | [E,B,]6 z2 | %8
w: ~ ~ ~|~ ~|~ ~ ~ ~|~|
 [E,E]4 [E,E]2 [E,E]2 | [E,B,]6 [E,B,]2 | [E,B,]2 [G,=B,]2 [B,D]2 [G,B,]2 | [C,C]4 [C,G,]4 | %12
w: ~ ~ ~|~ ~|~ ~ ~ ~|~ ~|
 [B,,A,]4 [B,,F,]2 [B,,B,]2 | [E,B,]2 [E,E]2 B,2 G,E, | (A,2 F,4) [B,,A,]2 | [E,G,]6 z2 || %16
w: ~ ~ ~|~ ~ ~ ~ ~|~ * ~|Tell|
 [C,G,]4 [C,C]3 [C,C] | [C,G,]6 [E,G,]2 | F,2 [E,G,]2 [D,G,]2 [C,G,]2 | [G,,G,]8 | %20
w: how a- lone|the path|of death He trod;|Tell|
 [C,G,]4 [B,,B,]3 [B,,B,] | [E,B,]6 [E,G,]2 | F,2 F,2 [F,B,]2 [=A,E]2 | (D2 E2 F4) | %24
w: how He lives,|thine ad-|vo- cate with God;|Lift * *|
 [E,E]4 [E,E]3 [E,E] | [E,B,]6 [E,B,]2 | [E,A,]2 [E,G,]2 [A,,A,]2 [A,,C]2 | [G,,=B,]8 | %28
w: up thy voice,|while Heav’n’s|tri- umph- ant throng,|Swell|
 [B,,F,]4 [B,,F,]2 [B,,A,]2 | [E,G,]6 [E,B,]2 | B,2 B,2 B,2 [B,,B,]2 | [E,B,]6 |] %32
w: at His feet|the ev-|er- last- ing song.||
V:4
 x8 | x8 | x8 | x8 | x8 | x8 | x8 | x8 | x8 | x8 | x8 | x8 | x8 | x4 (E,B,) (G,E,) | B,,6 x2 | %15
 x8 || x8 | x8 | F,2 x6 | x8 | x8 | x8 | F,2 F,2 x4 | B,8 | x8 | x8 | x8 | x8 | x8 | x8 | %30
 B,2 B,2 B,2 x2 | x6 |] %32

